X:1
T: Mary, Do It Again
C:
R:Jig
Q:180
K:A
M:6/8
L:1/16
c4A2 B2c2d2|e2c2A2 A4B2|=c2B2A2 d4c2|B4=G2 G4B2|c4A2 B2c2d2|e2c2A2 A4B2|e2f2e2 d4e2|c4A2 A4e2|
=g4g2 g2f2e2|d6 c4d2|e4a2 a4g2|a4e2 e4f2|=g4g2 g2f2e2|d6 c4d2|e2f2e2 d4e2|c4A2 A4e2|
=g4g2 g2f2e2|d6 c4d2|e4a2 a4g2|a4e2 e4f2|=g4g2 g2f2e2|d6 c4d2|e2f2e2 d4e2|c4A2 A4e2|
=g2f2e2 a2g2f2|b2a2=g2 a2g2f2|=g2f2e2 a2g2f2|=g2f2e2 d2c2B2|=g2f2e2 a2g2f2|b2a2=g2 a2g2f2|=g2f2e2 a2g2f2|=g2f2e2 d2c2B2||
